X:7645
T:Irish-American Reel
M:2/4
L:1/16
K:F
de|fage fcae|bgeg fdcB|AFcF dFcF|AGG^F G2de|!
fage fcaf|bgeg fdcB|ABcd efga|bgeg f2:|!
|:fg|afcf Acfg|afcf Acfa|bag^f gdg=f|egfd c2fg|!
afcf Acfg|afbg ecde|fcdB cABG|AFGE F2:|!
